src/assets/filled/BackwardItem.svg

<svg width="24" height="24" viewBox="0 0 24 24"  xmlns="http://www.w3.org/2000/svg">
<path d="M21.25 5.15V7.85C21.25 9.69 20.69 10.25 18.85 10.25H16.15C14.31 10.25 13.75 9.69 13.75 7.85V5.15C13.75 3.31 14.31 2.75 16.15 2.75H18.85C20.69 2.75 21.25 3.31 21.25 5.15Z" />
<path d="M10.25 16.15V18.85C10.25 20.69 9.69 21.25 7.85 21.25H5.15C3.31 21.25 2.75 20.69 2.75 18.85V16.15C2.75 14.31 3.31 13.75 5.15 13.75H7.85C9.69 13.75 10.25 14.31 10.25 16.15Z" />
<path d="M16.1501 11.7501C16.4152 11.7501 16.6301 11.965 16.6301 12.2301V13.6201C16.6301 15.9001 15.9001 16.6301 13.6201 16.6301H12.2301C11.965 16.6301 11.7501 16.4152 11.7501 16.1501C11.7501 13.4901 10.5101 12.2501 7.85012 12.2501C7.58502 12.2501 7.37012 12.0352 7.37012 11.7701V10.3801C7.37012 8.10012 8.10012 7.37012 10.3801 7.37012H11.7701C12.0352 7.37012 12.2501 7.58502 12.2501 7.85012C12.2501 10.5101 13.4901 11.7501 16.1501 11.7501Z" />
</svg>

<?xml version="1.0" encoding="UTF-8"?>
<svg width="24" height="24" viewBox="0 0 24 24" xmlns="http://www.w3.org/2000/svg">
 <path d="m21.25 5.15v2.7c0 1.84-0.56 2.4-2.4 2.4h-2.7c-1.84 0-2.4-0.56-2.4-2.4v-2.7c0-1.84 0.56-2.4 2.4-2.4h2.7c1.84 0 2.4 0.56 2.4 2.4z"/>
 <path d="m10.25 16.15v2.7c0 1.84-0.56 2.4-2.4 2.4h-2.7c-1.84 0-2.4-0.56-2.4-2.4v-2.7c0-1.84 0.56-2.4 2.4-2.4h2.7c1.84 0 2.4 0.56 2.4 2.4z"/>
 <path d="m16.15 11.75c0.2651 0 0.48 0.2149 0.48 0.48v1.39c0 2.28-0.73 3.01-3.01 3.01h-1.39c-0.2651 0-0.48-0.2149-0.48-0.48 0-2.66-1.24-3.9-3.9-3.9-0.2651 0-0.48-0.2149-0.48-0.48v-1.39c0-2.28 0.73-3.01 3.01-3.01h1.39c0.2651 0 0.48 0.2149 0.48 0.48 0 2.66 1.24 3.9 3.9 3.9z"/>
</svg>
